rospo-newyear-dark/symbolic/status/gser-icon-playing-symbolic.svg

<svg height="16" width="16" xmlns="http://www.w3.org/2000/svg"><path d="m1 2c-.554 0-1 .446-1 1v10c0 .554.446 1 1 1h14c .554 0 1-.446 1-1v-10c0-.554-.446-1-1-1zm4 2a4 4 0 0 1 4 4 4 4 0 0 1 -4 4 4 4 0 0 1 -4-4 4 4 0 0 1 4-4zm6 1h3c .277 0 .5.223.5.5s-.223.5-.5.5h-3c-.277 0-.5-.223-.5-.5s.223-.5.5-.5zm-6 1a2 2 0 0 0 -2 2 2 2 0 0 0 2 2 2 2 0 0 0 2-2 2 2 0 0 0 -2-2zm6 1h3c .277 0 .5.223.5.5s-.223.5-.5.5h-3c-.277 0-.5-.223-.5-.5s.223-.5.5-.5zm0 2h3c .277 0 .5.223.5.5s-.223.5-.5.5h-3c-.277 0-.5-.223-.5-.5s.223-.5.5-.5z" fill="#d3dae3"/></svg>

<svg xmlns="http://www.w3.org/2000/svg" width="16" height="16" version="1.1">
 <path style="fill:#d3dae3" d="M 1,2 C 0.446,2 0,2.446 0,3 V 13 C 0,13.554 0.446,14 1,14 H 15 C 15.554,14 16,13.554 16,13 V 3 C 16,2.446 15.554,2 15,2 Z M 5,4 A 4,4 0 0 1 9,8 4,4 0 0 1 5,12 4,4 0 0 1 1,8 4,4 0 0 1 5,4 Z M 11,5 H 14 C 14.277,5 14.5,5.223 14.5,5.5 14.5,5.777 14.277,6 14,6 H 11 C 10.723,6 10.5,5.777 10.5,5.5 10.5,5.223 10.723,5 11,5 Z M 5,6 A 2,2 0 0 0 3,8 2,2 0 0 0 5,10 2,2 0 0 0 7,8 2,2 0 0 0 5,6 Z M 11,7 H 14 C 14.277,7 14.5,7.223 14.5,7.5 14.5,7.777 14.277,8 14,8 H 11 C 10.723,8 10.5,7.777 10.5,7.5 10.5,7.223 10.723,7 11,7 Z M 11,9 H 14 C 14.277,9 14.5,9.223 14.5,9.5 14.5,9.777 14.277,10 14,10 H 11 C 10.723,10 10.5,9.777 10.5,9.5 10.5,9.223 10.723,9 11,9 Z"/>
</svg>
